X:1
T:[ID 1-27a]
T:[ID 1-27a]
T:Bezeichnung standardisiert: Menuett Men\"uet
T:Urheber unbekannt Datum in der hier transkribierten schriftlichen Quelle: vermutlich vor 1767
C:Urheber unbekannt
C:Datum in der hier transkribierten schriftlichen Quelle: vermutlich vor 1767
L:1/8
M:3/4
K:D
V:1 treble 
V:1
 (3def f4 | (3efg g4 | fagfed | (3cBA A4 | (3fga b4 | ad'c'bag | fe d2 c2 | d4 :| %8
 [df]2 [df]2 [df]2 | [ce]2 [ce]2 [ce]2 | a2 a2 a2 | (3^gfe e4 | (3abc' c'4 | (3bc'd' d'4 | %14
 c'b a2 ^g2 | a6!D.C.! || %16

